svgs/sharp-regular/vent-damper.svg

<svg xmlns="http://www.w3.org/2000/svg" viewBox="0 0 640 512"><!--! Font Awesome Pro 6.6.0 by @fontawesome - https://fontawesome.com License - https://fontawesome.com/license (Commercial License) Copyright 2024 Fonticons, Inc. --><path d="M528 112l0 288-416 0 0-288 416 0zM112 64L64 64l0 48 0 48L0 160 0 352l64 0 0 48 0 48 48 0 416 0 48 0 0-48 0-48 64 0 0-192-64 0 0-48 0-48-48 0L112 64zm72 80l-24 0 0 48 24 0 272 0 24 0 0-48-24 0-272 0zm0 88l-24 0 0 48 24 0 272 0 24 0 0-48-24 0-272 0zm0 88l-24 0 0 48 24 0 272 0 24 0 0-48-24 0-272 0z"/></svg>

<svg xmlns="http://www.w3.org/2000/svg" viewBox="0 0 640 512"><!--! Font Awesome Pro 6.4.2 by @fontawesome - https://fontawesome.com License - https://fontawesome.com/license (Commercial License) Copyright 2023 Fonticons, Inc. --><path d="M528 112V400H112V112H528zM112 64H64v48 48H0V352H64v48 48h48H528h48V400 352h64V160H576V112 64H528 112zm72 80H160v48h24H456h24V144H456 184zm0 88H160v48h24H456h24V232H456 184zm0 88H160v48h24H456h24V320H456 184z"/></svg>
